plasma_themes/posys_cursor_scalable/cursors_scalable/row-resize/row-resize.svg

<?xml version="1.0" encoding="UTF-8" standalone="no"?>
<!-- Created with Inkscape (http://www.inkscape.org/) -->

<svg
   version="1.1"
   id="svg1"
   width="75"
   height="75"
   viewBox="0 0 75 75"
   xml:space="preserve"
   xmlns="http://www.w3.org/2000/svg"
   xmlns:svg="http://www.w3.org/2000/svg"><defs
     id="defs1" /><path
     id="Selection-7"
     fill="none"
     stroke="#000000"
     stroke-width="0.73195"
     d="m 18.084977,41.277223 c -2.952499,0 -5.879256,-0.329418 -5.879256,-3.794281 0,-3.464862 3.001494,-3.79428 5.884729,-3.79428 h 38.824573 c 3.049126,0.0039 5.879256,0.329418 5.879256,3.79428 0,3.464863 -2.417887,3.794281 -5.884729,3.794281 z"
     style="display:inline;fill:#ffffff;fill-opacity:1;stroke:#000000;stroke-width:2.41144;stroke-dasharray:none;stroke-opacity:1;paint-order:normal" /><path
     id="Selection-5"
     fill="none"
     stroke="#000000"
     stroke-width="0.585871"
     d="m 41.707068,46.73448 0,10.099395 H 49.38679 L 37.500391,72.516682 25.613456,56.833875 h 7.680258 l 0,-10.099395 z"
     style="display:inline;fill:#ffffff;fill-opacity:1;stroke:#000000;stroke-width:3.00006;stroke-dasharray:none;stroke-opacity:1;paint-order:normal" /><path
     id="path6"
     fill="none"
     stroke="#000000"
     stroke-width="0.585871"
     d="m 49.38679,18.132589 -7.679722,3.27e-4 V 28.219178 H 33.293714 V 18.132916 H 25.613456 L 37.500391,2.4802666 Z"
     style="display:inline;fill:#ffffff;fill-opacity:1;stroke:#000000;stroke-width:3.00006;stroke-dasharray:none;stroke-opacity:1;paint-order:normal" /></svg>

<?xml version="1.0"?><svg xmlns="http://www.w3.org/2000/svg" width="75" height="75" version="1.2" viewBox="0 0 75 75" baseProfile="tiny-ps"><title>Posy's Cursor</title><path d="m18.08 41.28c-2.952 0-5.879-0.3294-5.879-3.794 0-3.465 3.001-3.794 5.885-3.794h38.82c3.049 0.0039 5.879 0.3294 5.879 3.794 0 3.465-2.418 3.794-5.885 3.794z" fill="#fff" stroke="#000" stroke-width="2.411"/><path d="m41.71 46.73v10.1h7.68l-11.89 15.68-11.89-15.68h7.68v-10.1z" fill="#fff" stroke="#000" stroke-width="3"/><path d="m49.39 18.13-7.68 3.27e-4v10.09h-8.413v-10.09h-7.68l11.89-15.65z" fill="#fff" stroke="#000" stroke-width="3"/></svg>
